;START_OF_HEADER
;HEADER_VERSION:0.1
;FLAVOR:Griffin
;GENERATOR.NAME:Cura_SteamEngine
;GENERATOR.VERSION:5.3.1
;GENERATOR.BUILD_DATE:2023-04-19
;TARGET_MACHINE.NAME:Ultimaker 3 Extended
;EXTRUDER_TRAIN.0.INITIAL_TEMPERATURE:215
;EXTRUDER_TRAIN.0.MATERIAL.VOLUME_USED:27085
;EXTRUDER_TRAIN.0.MATERIAL.GUID:32c69f10-75f2-4eaa-8c70-6efc3a1240f8
;EXTRUDER_TRAIN.0.NOZZLE.DIAMETER:0.8
;EXTRUDER_TRAIN.0.NOZZLE.NAME:AA 0.8
;BUILD_PLATE.INITIAL_TEMPERATURE:60
;PRINT.TIME:8933
;PRINT.GROUPS:1
;PRINT.SIZE.MIN.X:9
;PRINT.SIZE.MIN.Y:6
;PRINT.SIZE.MIN.Z:0.2
;PRINT.SIZE.MAX.X:182.269
;PRINT.SIZE.MAX.Y:172.685
;PRINT.SIZE.MAX.Z:15.65
;SLICE_UUID:face7a59-9687-48fc-a09b-ad88df0305c6
;END_OF_HEADER
;Generated with Cura_SteamEngine 5.3.1
T0
M82 ;absolute extrusion mode

G92 E0
M109 S215
G0 F15000 X9 Y6 Z2
G280
G1 F1500 E-6.5
;LAYER_COUNT:104
;LAYER:0
M106 S25.5
M204 S1000
M205 X25 Y25
G1 F600 Z2.2
G0 F15000 X53.912 Y43.874 Z2.2
;TYPE:SKIRT
G1 F600 Z0.2
G1 F900 E0
G1 F1125 X57.447 Y42.315 E0.0969
G1 X177.159 Y42.315 E3.09937
G1 X180.71 Y44.328 E3.20174
G1 X182.269 Y47.863 E3.29864
G1 X182.269 Y167.572 E6.30103
G1 X180.972 Y169.97 E6.36941
G1 X178.492 Y172.266 E6.45417
G1 X176.217 Y172.685 E6.51219
G1 X56.804 Y172.685 E9.50716
G1 X54.385 Y171.171 E9.57873
G1 X52.301 Y168.852 E9.65693
G1 X51.899 Y166.61 E9.71406
G1 X51.899 Y47.425 E12.70331
G1 X53.912 Y43.874 E12.80568
G0 F15000 X54.478 Y44.499
G1 F1125 X57.616 Y43.115 E12.8917
G1 X176.947 Y43.115 E15.88461
G1 X180.085 Y44.894 E15.97508
G1 X181.469 Y48.032 E16.0611
G1 X181.469 Y167.369 E19.05416
G1 X180.331 Y169.474 E19.11418
G1 X178.12 Y171.521 E19.18975
G1 X176.143 Y171.885 E19.24017
G1 X57.034 Y171.885 E22.22751
G1 X54.905 Y170.552 E22.29051
G1 X53.048 Y168.486 E22.36018
G1 X52.699 Y166.541 E22.40974
G1 X52.699 Y47.637 E25.39194
G1 X54.478 Y44.499 E25.48241
G0 F15000 X55.043 Y45.124
G1 F1125 X57.785 Y43.915 E25.55757
G1 X176.736 Y43.915 E28.54095
G1 X179.46 Y45.459 E28.61948
G1 X180.669 Y48.201 E28.69464
G1 X180.669 Y167.167 E31.6784
G1 X179.689 Y168.979 E31.73007
G1 X177.748 Y170.776 E31.79641
G1 X176.069 Y171.085 E31.83922
G1 X57.264 Y171.085 E34.81894
G1 X55.426 Y169.935 E34.87332
G1 X53.795 Y168.12 E34.93452
G1 X53.499 Y166.472 E34.97652
G1 X53.499 Y47.848 E37.95169
G1 X55.043 Y45.124 E38.03023
G0 F15000 X55.609 Y45.749
G1 F1125 X57.954 Y44.715 E38.0945
G1 X176.524 Y44.715 E41.06833
G1 X178.835 Y46.025 E41.13495
G1 X179.869 Y48.37 E41.19923
G1 X179.869 Y166.964 E44.17366
G1 X179.048 Y168.483 E44.21696
G1 X177.376 Y170.031 E44.27411
G1 X175.995 Y170.285 E44.30933
G1 X57.492 Y170.285 E47.28147
G1 X55.947 Y169.318 E47.32719
G1 X54.542 Y167.754 E47.37992
G1 X54.299 Y166.402 E47.41437
G1 X54.299 Y48.06 E50.38247
G1 X55.609 Y45.749 E50.4491
G0 F15000 X56.175 Y46.374
G1 F1125 X58.123 Y45.515 E50.5025
G1 X176.312 Y45.515 E53.46676
G1 X178.21 Y46.591 E53.52148
G1 X179.069 Y48.539 E53.57488
G1 X179.069 Y166.762 E56.54
G1 X178.407 Y167.986 E56.5749
G1 X177.003 Y169.286 E56.62289
G1 X175.921 Y169.485 E56.65049
G1 X57.72 Y169.485 E59.61505
G1 X56.466 Y168.7 E59.65216
G1 X55.289 Y167.389 E59.69635
G1 X55.099 Y166.332 E59.72328
G1 X55.099 Y48.272 E62.68432
G1 X56.175 Y46.374 E62.73904
G0 F15000 X56.741 Y46.999
G1 F1125 X58.292 Y46.315 E62.78155
G1 X176.1 Y46.315 E65.73626
G1 X177.585 Y47.157 E65.77908
G1 X178.269 Y48.708 E65.82159
G1 X178.269 Y166.559 E68.77738
G1 X177.767 Y167.488 E68.80387
G1 X176.63 Y168.541 E68.84274
G1 X175.847 Y168.685 E68.8627
G1 X57.95 Y168.685 E71.81965
G1 X56.986 Y168.081 E71.84818
G1 X56.036 Y167.024 E71.88382
G1 X55.899 Y166.258 E71.90334
G1 X55.899 Y48.484 E74.8572
G1 X56.741 Y46.999 E74.90002
G0 F15000 X57.306 Y47.624
G1 F1125 X58.461 Y47.115 E74.93167
G1 X175.889 Y47.115 E77.87685
G1 X176.96 Y47.722 E77.90773
G1 X177.469 Y48.877 E77.93939
G1 X177.469 Y166.356 E80.88585
G1 X177.127 Y166.99 E80.90391
G1 X176.257 Y167.796 E80.93366
G1 X175.847 Y167.885 E80.94418
G1 X58.18 Y167.885 E83.89536
G1 X57.507 Y167.464 E83.91527
G1 X56.783 Y166.658 E83.94244
G1 X56.699 Y166.258 E83.95269
G1 X56.699 Y48.695 E86.90126
G1 X57.306 Y47.624 E86.93213
G0 F15000 X57.872 Y48.249
G1 F1125 X58.63 Y47.915 E86.95291
G1 X175.677 Y47.915 E89.88853
G1 X176.335 Y48.288 E89.9075
G1 X176.669 Y49.046 E89.92828
G1 X176.669 Y166.158 E92.86554
G1 X176.537 Y166.45 E92.87357
G1 X175.847 Y167.085 E92.89709
G1 X58.404 Y167.085 E95.84265
G1 X58.102 Y166.93 E95.85116
G1 X57.499 Y166.258 E95.87381
G1 X57.499 Y48.907 E98.81706
G1 X57.872 Y48.249 E98.83603
G0 F15000 X58.449 Y48.803
G1 F1125 X58.63 Y48.715 E98.84108
G1 X175.469 Y48.715 E101.77148
G1 X175.781 Y48.865 E101.78017
G1 X175.869 Y49.046 E101.78521
G1 X175.869 Y166.009 E104.71873
G1 X175.538 Y166.285 E104.72954
G1 X58.575 Y166.285 E107.66306
G1 X58.299 Y165.954 E107.67387
G1 X58.299 Y49.115 E110.60428
G1 X58.449 Y48.803 E110.61296
M204 S429
G1 F1500 E104.11296
;MESH:TestFrame_120mm.3mf
G0 F15000 X59.875 Y50.875
G0 X60.958 Y164.227
;TYPE:WALL-OUTER
G1 F900 E110.61296
G1 F923.1 X60.602 Y163.866 E110.62968
G1 F986.3 X60.184 Y163.411 E110.64888
G1 F883.5 X60.184 Y135.477 E111.60643
G1 F885.5 X60.183 Y107.543 E112.56205
G1 F887.5 X60.182 Y79.609 E113.51575
G1 F889.5 X60.181 Y51.675 E114.46753
G1 F994.9 X60.578 Y51.29 E114.48458
G1 F923.1 X60.885 Y50.776 E114.50431
G1 F777.8 X83.346 Y50.776 E115.36566
G1 F779.4 X105.807 Y50.775 E116.22545
G1 F780.2 X128.268 Y50.775 E117.08447
G1 F781.8 X150.729 Y50.774 E117.94195
G1 F783.4 X173.19 Y50.773 E118.79787
G1 X173.811 Y51.408 E118.83171
G1 X173.811 Y73.846 E119.68676
G1 F781.8 X173.81 Y96.284 E120.54335
G1 F780.2 X173.81 Y118.722 E121.4015
G1 F779.4 X173.809 Y141.16 E122.26041
G1 F777.8 X173.808 Y163.598 E123.12087
G1 F777 X173.272 Y164.224 E123.15251
G1 F777.8 X150.809 Y164.224 E124.01393
G1 F779.4 X128.346 Y164.225 E124.8738
G1 F780.2 X105.883 Y164.225 E125.7329
G1 F781.8 X83.42 Y164.226 E126.59044
G1 F783.4 X60.957 Y164.227 E127.44644
G0 F15000 X60.678 Y163.943
G0 X60.958 Y165.333
G1 F783.4 X83.44 Y165.333 E128.30317
G1 F781.8 X105.922 Y165.332 E129.16144
G1 F780.2 X128.404 Y165.331 E130.02126
G1 F779.4 X150.886 Y165.33 E130.88186
G1 F777.8 X173.368 Y165.329 E131.74401
G1 F923.1 X174.15 Y165.485 E131.7703
G1 F1125 X175.069 Y165.485 E131.79566
G1 F1083.2 X175.069 Y164.479 E131.82438
G1 F893.6 X174.913 Y163.694 E131.85154
G1 F777.8 X174.913 Y141.237 E132.71273
G1 F779.4 X174.914 Y118.78 E133.57237
G1 F780.2 X174.915 Y96.323 E134.43124
G1 F781.8 X174.916 Y73.866 E135.28856
G1 F783.4 X174.916 Y51.409 E136.14433
G1 F927.4 X175.069 Y50.434 E136.17673
G1 F1125 X175.069 Y49.515 E136.20209
G1 F1111.2 X173.88 Y49.515 E136.23526
G1 F917.7 X173.086 Y49.667 E136.26205
G1 F783.4 X150.627 Y49.667 E137.1179
G1 F781.8 X128.168 Y49.668 E137.97529
G1 F780.2 X105.709 Y49.669 E138.83424
G1 F779.4 X83.25 Y49.67 E139.69396
G1 F777.8 X60.791 Y49.67 E140.55522
G1 F923.1 X60.015 Y49.515 E140.58131
G1 F1125 X59.099 Y49.515 E140.60658
G1 X59.099 Y50.709 E140.63953
G1 F994.9 X59.193 Y51.675 E140.66945
G1 F889.5 X59.193 Y79.631 E141.62197
G1 F887.5 X59.194 Y107.587 E142.57642
G1 F885.5 X59.195 Y135.543 E143.5328
G1 F883.5 X59.196 Y163.499 E144.49111
G1 F986.3 X59.103 Y164.241 E144.51434
G1 F1120.4 X59.099 Y165.485 E144.54879
G1 F1125 X60.008 Y165.485 E144.57387
G1 F927.4 X60.958 Y165.333 E144.60546
M204 S1000
G0 F15000 X61.358 Y165.333
G0 X60.135 Y164.576
;TYPE:WALL-INNER
G1 F860 X60.071 Y164.685 E144.60929
G1 X59.881 Y164.576 E144.61593
G1 X60.071 Y164.467 E144.62257
G1 F1500 E138.12257
G0 F15000 X59.847 Y50.847
G0 X60.144 Y50.431
G1 F900 E144.62257
G1 F846.8 X60.079 Y50.542 E144.62652
G1 X59.886 Y50.431 E144.63337
G1 X60.079 Y50.32 E144.64021
G1 F1500 E138.14021
G0 F15000 X174.214 Y50.323
G1 F900 E144.64021
G1 F841.3 X174.021 Y50.434 E144.64709
G1 X174.214 Y50.545 E144.65398
G1 X174.279 Y50.434 E144.65795
G1 F1500 E138.15795
G0 F15000 X174.214 Y164.455
G1 F900 E144.65795
G1 F841.3 X174.021 Y164.566 E144.66484
G1 X174.214 Y164.677 E144.67172
G1 X174.279 Y164.566 E144.6757
G1 F1500 E138.1757
;MESH:TestFrame_120mm.3mf(1)
G0 F15000 X159.857 Y164.475
G0 X159.857 Y162.505
G0 X159.857 Y163.325
;TYPE:FILL
G1 F900 E144.6757
G1 F1125 X172.325 Y141.73 E145.3011
G0 F15000 X172.325 Y140.019
G1 F1125 X60.675 Y140.019 E148.10137
G0 F15000 X60.675 Y139.156
G1 F1125 X111.182 Y51.675 E150.63488
G0 F15000 X111.182 Y53.375
G0 X121.819 Y53.375
G0 X121.819 Y51.675
G1 F1125 X172.325 Y139.155 E153.16836
G1 F1500 E146.66836
G0 F15000 X170.625 Y139.155
G0 X170.625 Y107.359
G0 X172.325 Y107.359
G1 F900 E153.16836
G1 F1125 X60.675 Y107.359 E155.96863
G1 F1500 E149.46863
G0 F15000 X62.375 Y107.359
G0 X62.375 Y76.414
G0 X60.675 Y76.414
G1 F900 E155.96863
G1 F1125 X110.853 Y163.325 E158.48563
G0 F15000 X110.853 Y161.625
G0 X122.147 Y161.625
G0 X122.147 Y163.325
G1 F1125 X172.325 Y76.413 E161.00266
G0 F15000 X172.325 Y74.697
G1 F1125 X60.675 Y74.697 E163.80292
G0 F15000 X60.675 Y73.833
G1 F1125 X73.468 Y51.675 E164.44464
G0 F15000 X73.468 Y53.375
G0 X84.107 Y53.375
G0 X84.107 Y51.675
G1 F1125 X148.568 Y163.325 E167.6781
G1 F1500 E161.1781
G0 F15000 X148.568 Y161.625
G0 X84.432 Y161.625
G0 X84.432 Y163.325
G1 F900 E167.6781
G1 F1125 X148.893 Y51.675 E170.91157
G0 F15000 X148.893 Y53.375
G0 X159.532 Y53.375
G0 X159.532 Y51.675
G1 F1125 X172.325 Y73.833 E171.55328
G1 F1500 E165.05328
G0 F15000 X170.625 Y73.833
G0 X62.375 Y141.728
G0 X60.675 Y141.728
G1 F900 E171.55328
G1 F1125 X73.144 Y163.325 E172.17875
M204 S429
G0 F15000 X73.144 Y160.925
G1 F1500 E165.67875
;MESH:NONMESH
G0 F600 X73.144 Y160.925 Z0.35
G0 F15000 X61.489 Y162.511
G0 X61.489 Y164.475
G0 X61.069 Y163.915
;TIME_ELAPSED:378.695422
;LAYER:1
;TYPE:WALL-OUTER
;MESH:UM3E_230315_testinfill_frame_120mm.3mf
G1 F900 E172.17875
G1 F1500 X60.786 Y163.798 E172.18451
G1 X60.674 Y163.585 E172.18903
G1 X60.669 Y51.485 E174.2977
G1 X60.786 Y51.202 E174.30346
G1 X60.999 Y51.09 E174.30798
G1 X173.099 Y51.085 E176.41665
G1 X173.382 Y51.202 E176.42241
G1 X173.499 Y51.485 E176.42817
G1 X173.494 Y163.585 E178.53683
G1 X173.169 Y163.91 E178.54548
G1 X61.069 Y163.915 E180.65414
G0 F15000 X60.786 Y163.798
G0 X60.743 Y163.715
G0 X60.378 Y164.08
G0 X58.939 Y165.645
G1 F1500 X175.229 Y165.645 E182.84162
G1 X175.229 Y49.355 E185.0291
G1 X58.939 Y49.355 E187.21658
G1 X58.939 Y165.645 E189.40406
M204 S1500
G0 F15000 X59.339 Y165.645
G0 X59.813 Y163.735
;TYPE:WALL-INNER
G1 F1505.1 X59.804 Y163.515 E189.40893
G1 F1523.2 X59.804 Y51.485 E191.85872
G1 F1785.3 X60.262 Y50.678 E191.8763
G1 F1761.2 X60.849 Y50.229 E191.89048
G1 X60.021 Y50.096 E191.90657
G1 F2142.6 X59.68 Y50.096 E191.91204
G1 X59.68 Y50.437 E191.91751
G1 F1949 X59.742 Y50.961 E191.92674
G1 F1644.9 X59.804 Y51.485 E191.93751
G0 F15000 X60.849 Y50.229
G1 F1505.1 X61.069 Y50.22 E191.94238
G1 F1523.2 X173.099 Y50.22 E194.39217
G0 F15000 X174.364 Y51.485
G1 F1523.2 X174.364 Y163.515 E196.84196
G1 F1506.9 X174.355 Y163.735 E196.84682
G0 F15000 X173.319 Y164.771
G1 F1505.1 X173.099 Y164.78 E196.85168
G1 F1523.2 X61.069 Y164.78 E199.30147
G1 F1785.3 X60.262 Y164.322 E199.31906
G1 F1761.2 X59.813 Y163.735 E199.33324
G1 X59.68 Y164.563 E199.34933
G1 F2142.6 X59.68 Y164.904 E199.3548
G1 X60.021 Y164.904 E199.36027
G1 F1949 X60.545 Y164.842 E199.3695
G1 F1644.9 X61.069 Y164.78 E199.38027
G1 F1500 E192.88027
G0 F15000 X173.319 Y164.771
G1 F900 E199.38027
G1 F1761.2 X174.147 Y164.904 E199.39636
G1 F2142.6 X174.488 Y164.904 E199.40182
G1 X174.488 Y164.563 E199.40729
G1 F1763.6 X174.355 Y163.735 E199.42336
G1 X173.906 Y164.322 E199.43753
G1 F1761.2 X173.319 Y164.771 E199.45171
G1 F1500 E192.95171
G0 F15000 X174.364 Y51.485
G1 F900 E199.45171
G1 F1644.9 X174.426 Y50.961 E199.46247
G1 F1949 X174.488 Y50.437 E199.47171
G1 F2142.6 X174.488 Y50.096 E199.47717
G1 X174.147 Y50.096 E199.48264
G1 F1949 X173.623 Y50.158 E199.49187
G1 F1644.9 X173.099 Y50.22 E199.50264
G1 F1785.3 X173.906 Y50.678 E199.52023
G1 X174.364 Y51.485 E199.53781
M204 S3500
G1 F1500 E193.03781
;MESH:UM3E_230315_testinfill_frame_120mm.3mf(1)
G0 F15000 X173.899 Y53.215
G0 X171.665 Y53.215
G0 X159.317 Y53.215
G0 X159.317 Y51.515
;TYPE:FILL
G1 F900 E199.53781
G1 F2100 X172.485 Y74.323 E200.03321
G1 X172.485 Y74.591 E200.03825
G1 X61.069 Y74.591 E202.13405
G0 F15000 X61.069 Y73.363
G1 F2100 X73.683 Y51.515 E202.6086
G0 F15000 X73.683 Y53.215
G0 X83.892 Y53.215
G0 X83.892 Y51.515
G1 F2100 X148.538 Y163.485 E205.04065
G0 F15000 X148.538 Y161.785
G0 X159.887 Y161.785
G0 X159.887 Y163.485
G1 F2100 X172.485 Y141.664 E205.51462
G1 F1500 E199.01462
G0 F15000 X170.785 Y141.664
G0 X170.785 Y107.253
G0 X172.485 Y107.253
G1 F900 E205.51462
G1 F2100 X61.069 Y107.253 E207.61041
G1 F1500 E201.11041
G0 F15000 X62.769 Y107.253
G0 X62.769 Y77.31
G0 X61.069 Y77.31
G1 F900 E207.61041
G1 F2100 X110.823 Y163.485 E209.48219
G0 F15000 X110.823 Y161.785
G0 X122.177 Y161.785
G0 X122.177 Y163.485
G1 F2100 X172.485 Y76.349 E211.37483
G1 F1500 E204.87483
G0 F15000 X170.785 Y76.349
G0 X149.108 Y53.215
G0 X149.108 Y51.515
G1 F900 E211.37483
G1 F2100 X84.462 Y163.485 E213.80688
G0 F15000 X84.462 Y161.785
G0 X73.114 Y161.785
G0 X73.114 Y163.485
G1 F2100 X61.069 Y142.622 E214.26004
G0 F15000 X62.769 Y142.622
G0 X62.769 Y139.914
G0 X61.069 Y139.914
G1 F2100 X172.485 Y139.914 E216.35583
G1 X172.485 Y139.641 E216.36097
G1 X121.606 Y51.515 E218.27511
G0 F15000 X121.606 Y53.215
G0 X111.395 Y53.215
G0 X111.395 Y51.515
G1 F2100 X61.069 Y138.683 E220.16844
M204 S429
G0 F15000 X63.469 Y138.683
G1 F1500 E213.66844
;MESH:NONMESH
G0 F600 X63.469 Y138.683 Z0.5
G0 F15000 X61.883 Y162.671
G0 X61.883 Y164.315
G0 X61.015 Y163.915
;TIME_ELAPSED:474.315613
;LAYER:2
;TYPE:WALL-OUTER
;MESH:TestFrame_120mm.3mf
G1 F900 E220.16844
G1 F1500 X60.393 Y163.878 E220.18017
G1 F1321.6 X60.024 Y163.571 E220.19029
G1 F1178 X60.024 Y135.557 E220.84504
G1 F1180.6 X60.023 Y107.543 E221.49846
G1 F1183.3 X60.022 Y79.529 E222.15058
G1 F1186 X60.021 Y51.515 E222.80137
G1 F1326.5 X60.446 Y51.12 E222.81357
G1 F1500 X60.961 Y51.114 E222.82326
G1 X61.015 Y51.085 E222.82441
G1 X173.099 Y51.085 E224.93277
G1 X173.382 Y51.202 E224.93853
G1 X173.499 Y51.485 E224.94429
G1 X173.494 Y163.585 E227.05295
G1 X173.169 Y163.91 E227.0616
G1 X61.015 Y163.915 E229.17128
G0 F15000 X60.616 Y163.892
G0 X60.616 Y164.385
G0 X58.939 Y165.645
G1 F1500 X175.229 Y165.645 E231.35876
G1 X175.229 Y49.355 E233.54624
G1 X58.939 Y49.355 E235.73372
G1 X58.939 Y50.31 E235.75168
G1 F1455.8 X58.961 Y50.912 E235.76333
G1 F1291 X59.033 Y51.515 E235.77641
G1 F1186 X59.033 Y79.551 E236.42771
G1 F1183.3 X59.034 Y107.587 E237.08033
G1 F1180.6 X59.035 Y135.623 E237.73428
G1 F1178 X59.036 Y163.659 E238.38954
G1 F1252.8 X58.982 Y164.087 E238.39908
G1 F1414 X58.939 Y164.69 E238.41108
G1 F1500 X58.939 Y165.645 E238.42904
M204 S1500
G0 F15000 X59.339 Y165.645
G0 X59.894 Y164.69
;TYPE:WALL-INNER
G1 F1350.4 X60.515 Y164.765 E238.44427
G1 F1496.2 X61.085 Y164.78 E238.45694
G1 F1523.2 X173.099 Y164.78 E240.90638
G1 F1505.1 X173.319 Y164.771 E240.91124
G1 F1761.2 X174.147 Y164.904 E240.92733
G1 F2142.6 X174.488 Y164.904 E240.9328
G1 X174.488 Y164.563 E240.93827
G1 F1763.6 X174.355 Y163.735 E240.95434
G1 X173.906 Y164.322 E240.9685
G1 F1761.2 X173.319 Y164.771 E240.98268
G0 F15000 X174.355 Y163.735
G1 F1506.9 X174.364 Y163.515 E240.98754
G1 F1523.2 X174.364 Y51.485 E243.43733
G1 F1644.9 X174.426 Y50.961 E243.4481
G1 F1949 X174.488 Y50.437 E243.45733
G1 F2142.6 X174.488 Y50.096 E243.4628
G1 X174.147 Y50.096 E243.46827
G1 F1949 X173.623 Y50.158 E243.4775
G1 F1644.9 X173.099 Y50.22 E243.48827
G1 F1785.3 X173.906 Y50.678 E243.50586
G1 X174.364 Y51.485 E243.52344
G0 F15000 X173.099 Y50.22
