;START_OF_HEADER
;HEADER_VERSION:0.1
;FLAVOR:Griffin
;GENERATOR.NAME:Cura_SteamEngine
;GENERATOR.VERSION:5.3.1
;GENERATOR.BUILD_DATE:2023-04-19
;TARGET_MACHINE.NAME:Ultimaker 3 Extended
;EXTRUDER_TRAIN.0.INITIAL_TEMPERATURE:215
;EXTRUDER_TRAIN.0.MATERIAL.VOLUME_USED:28957
;EXTRUDER_TRAIN.0.MATERIAL.GUID:32c69f10-75f2-4eaa-8c70-6efc3a1240f8
;EXTRUDER_TRAIN.0.NOZZLE.DIAMETER:0.8
;EXTRUDER_TRAIN.0.NOZZLE.NAME:AA 0.8
;BUILD_PLATE.INITIAL_TEMPERATURE:60
;PRINT.TIME:8953
;PRINT.GROUPS:1
;PRINT.SIZE.MIN.X:9
;PRINT.SIZE.MIN.Y:6
;PRINT.SIZE.MIN.Z:0.2
;PRINT.SIZE.MAX.X:182.269
;PRINT.SIZE.MAX.Y:172.685
;PRINT.SIZE.MAX.Z:15.65
;SLICE_UUID:48506748-1bc2-4ade-9ddc-88423b1ad937
;END_OF_HEADER
;Generated with Cura_SteamEngine 5.3.1
T0
M82 ;absolute extrusion mode

G92 E0
M109 S215
G0 F15000 X9 Y6 Z2
G280
G1 F1500 E-6.5
;LAYER_COUNT:104
;LAYER:0
M106 S25.5
M204 S1000
M205 X25 Y25
G1 F600 Z2.2
G0 F15000 X53.912 Y43.874 Z2.2
;TYPE:SKIRT
G1 F600 Z0.2
G1 F900 E0
G1 F1125 X57.447 Y42.315 E0.0969
G1 X177.159 Y42.315 E3.09937
G1 X180.71 Y44.328 E3.20174
G1 X182.269 Y47.863 E3.29864
G1 X182.269 Y167.572 E6.30103
G1 X180.972 Y169.97 E6.36941
G1 X178.492 Y172.266 E6.45417
G1 X176.217 Y172.685 E6.51219
G1 X56.804 Y172.685 E9.50716
G1 X54.385 Y171.171 E9.57873
G1 X52.301 Y168.852 E9.65693
G1 X51.899 Y166.61 E9.71406
G1 X51.899 Y47.425 E12.70331
G1 X53.912 Y43.874 E12.80568
G0 F15000 X54.478 Y44.499
G1 F1125 X57.616 Y43.115 E12.8917
G1 X176.947 Y43.115 E15.88461
G1 X180.085 Y44.894 E15.97508
G1 X181.469 Y48.032 E16.0611
G1 X181.469 Y167.369 E19.05416
G1 X180.331 Y169.474 E19.11418
G1 X178.12 Y171.521 E19.18975
G1 X176.143 Y171.885 E19.24017
G1 X57.034 Y171.885 E22.22751
G1 X54.905 Y170.552 E22.29051
G1 X53.048 Y168.486 E22.36018
G1 X52.699 Y166.541 E22.40974
G1 X52.699 Y47.637 E25.39194
G1 X54.478 Y44.499 E25.48241
G0 F15000 X55.043 Y45.124
G1 F1125 X57.785 Y43.915 E25.55757
G1 X176.736 Y43.915 E28.54095
G1 X179.46 Y45.459 E28.61948
G1 X180.669 Y48.201 E28.69464
G1 X180.669 Y167.167 E31.6784
G1 X179.689 Y168.979 E31.73007
G1 X177.748 Y170.776 E31.79641
G1 X176.069 Y171.085 E31.83922
G1 X57.264 Y171.085 E34.81894
G1 X55.426 Y169.935 E34.87332
G1 X53.795 Y168.12 E34.93452
G1 X53.499 Y166.472 E34.97652
G1 X53.499 Y47.848 E37.95169
G1 X55.043 Y45.124 E38.03023
G0 F15000 X55.609 Y45.749
G1 F1125 X57.954 Y44.715 E38.0945
G1 X176.524 Y44.715 E41.06833
G1 X178.835 Y46.025 E41.13495
G1 X179.869 Y48.37 E41.19923
G1 X179.869 Y166.964 E44.17366
G1 X179.048 Y168.483 E44.21696
G1 X177.376 Y170.031 E44.27411
G1 X175.995 Y170.285 E44.30933
G1 X57.492 Y170.285 E47.28147
G1 X55.947 Y169.318 E47.32719
G1 X54.542 Y167.754 E47.37992
G1 X54.299 Y166.402 E47.41437
G1 X54.299 Y48.06 E50.38247
G1 X55.609 Y45.749 E50.4491
G0 F15000 X56.175 Y46.374
G1 F1125 X58.123 Y45.515 E50.5025
G1 X176.312 Y45.515 E53.46676
G1 X178.21 Y46.591 E53.52148
G1 X179.069 Y48.539 E53.57488
G1 X179.069 Y166.762 E56.54
G1 X178.407 Y167.986 E56.5749
G1 X177.003 Y169.286 E56.62289
G1 X175.921 Y169.485 E56.65049
G1 X57.72 Y169.485 E59.61505
G1 X56.466 Y168.7 E59.65216
G1 X55.289 Y167.389 E59.69635
G1 X55.099 Y166.332 E59.72328
G1 X55.099 Y48.272 E62.68432
G1 X56.175 Y46.374 E62.73904
G0 F15000 X56.741 Y46.999
G1 F1125 X58.292 Y46.315 E62.78155
G1 X176.1 Y46.315 E65.73626
G1 X177.585 Y47.157 E65.77908
G1 X178.269 Y48.708 E65.82159
G1 X178.269 Y166.559 E68.77738
G1 X177.767 Y167.488 E68.80387
G1 X176.63 Y168.541 E68.84274
G1 X175.847 Y168.685 E68.8627
G1 X57.95 Y168.685 E71.81965
G1 X56.986 Y168.081 E71.84818
G1 X56.036 Y167.024 E71.88382
G1 X55.899 Y166.258 E71.90334
G1 X55.899 Y48.484 E74.8572
G1 X56.741 Y46.999 E74.90002
G0 F15000 X57.306 Y47.624
G1 F1125 X58.461 Y47.115 E74.93167
G1 X175.889 Y47.115 E77.87685
G1 X176.96 Y47.722 E77.90773
G1 X177.469 Y48.877 E77.93939
G1 X177.469 Y166.356 E80.88585
G1 X177.127 Y166.99 E80.90391
G1 X176.257 Y167.796 E80.93366
G1 X175.847 Y167.885 E80.94418
G1 X58.18 Y167.885 E83.89536
G1 X57.507 Y167.464 E83.91527
G1 X56.783 Y166.658 E83.94244
G1 X56.699 Y166.258 E83.95269
G1 X56.699 Y48.695 E86.90126
G1 X57.306 Y47.624 E86.93213
G0 F15000 X57.872 Y48.249
G1 F1125 X58.63 Y47.915 E86.95291
G1 X175.677 Y47.915 E89.88853
G1 X176.335 Y48.288 E89.9075
G1 X176.669 Y49.046 E89.92828
G1 X176.669 Y166.158 E92.86554
G1 X176.537 Y166.45 E92.87357
G1 X175.847 Y167.085 E92.89709
G1 X58.404 Y167.085 E95.84265
G1 X58.102 Y166.93 E95.85116
G1 X57.499 Y166.258 E95.87381
G1 X57.499 Y48.907 E98.81706
G1 X57.872 Y48.249 E98.83603
G0 F15000 X58.449 Y48.803
G1 F1125 X58.63 Y48.715 E98.84108
G1 X175.469 Y48.715 E101.77148
G1 X175.781 Y48.865 E101.78017
G1 X175.869 Y49.046 E101.78521
G1 X175.869 Y166.009 E104.71873
G1 X175.538 Y166.285 E104.72954
G1 X58.575 Y166.285 E107.66306
G1 X58.299 Y165.954 E107.67387
G1 X58.299 Y49.115 E110.60428
G1 X58.449 Y48.803 E110.61296
M204 S429
G1 F1500 E104.11296
;MESH:UM3E_230315_testinfill_frame_120mm.3mf
G0 F15000 X59.875 Y50.875
G0 X60.958 Y164.227
;TYPE:WALL-OUTER
G1 F900 E110.61296
G1 F923.1 X60.602 Y163.866 E110.62968
G1 F986.3 X60.184 Y163.411 E110.64888
G1 F883.5 X60.184 Y135.477 E111.60643
G1 F885.5 X60.183 Y107.543 E112.56205
G1 F887.5 X60.182 Y79.609 E113.51575
G1 F889.5 X60.181 Y51.675 E114.46753
G1 F994.9 X60.578 Y51.29 E114.48458
G1 F923.1 X60.885 Y50.776 E114.50431
G1 F777.8 X83.346 Y50.776 E115.36566
G1 F779.4 X105.807 Y50.775 E116.22545
G1 F780.2 X128.268 Y50.775 E117.08447
G1 F781.8 X150.729 Y50.774 E117.94195
G1 F783.4 X173.19 Y50.773 E118.79787
G1 X173.811 Y51.408 E118.83171
G1 X173.811 Y73.846 E119.68676
G1 F781.8 X173.81 Y96.284 E120.54335
G1 F780.2 X173.81 Y118.722 E121.4015
G1 F779.4 X173.809 Y141.16 E122.26041
G1 F777.8 X173.808 Y163.598 E123.12087
G1 F777 X173.272 Y164.224 E123.15251
G1 F777.8 X150.809 Y164.224 E124.01393
G1 F779.4 X128.346 Y164.225 E124.8738
G1 F780.2 X105.883 Y164.225 E125.7329
G1 F781.8 X83.42 Y164.226 E126.59044
G1 F783.4 X60.957 Y164.227 E127.44644
G0 F15000 X60.678 Y163.943
G0 X60.958 Y165.333
G1 F783.4 X83.44 Y165.333 E128.30317
G1 F781.8 X105.922 Y165.332 E129.16144
G1 F780.2 X128.404 Y165.331 E130.02126
G1 F779.4 X150.886 Y165.33 E130.88186
G1 F777.8 X173.368 Y165.329 E131.74401
G1 F923.1 X174.15 Y165.485 E131.7703
G1 F1125 X175.069 Y165.485 E131.79566
G1 F1083.2 X175.069 Y164.479 E131.82438
G1 F893.6 X174.913 Y163.694 E131.85154
G1 F777.8 X174.913 Y141.237 E132.71273
G1 F779.4 X174.914 Y118.78 E133.57237
G1 F780.2 X174.915 Y96.323 E134.43124
G1 F781.8 X174.916 Y73.866 E135.28856
G1 F783.4 X174.916 Y51.409 E136.14433
G1 F927.4 X175.069 Y50.434 E136.17673
G1 F1125 X175.069 Y49.515 E136.20209
G1 F1111.2 X173.88 Y49.515 E136.23526
G1 F917.7 X173.086 Y49.667 E136.26205
G1 F783.4 X150.627 Y49.667 E137.1179
G1 F781.8 X128.168 Y49.668 E137.97529
G1 F780.2 X105.709 Y49.669 E138.83424
G1 F779.4 X83.25 Y49.67 E139.69396
G1 F777.8 X60.791 Y49.67 E140.55522
G1 F923.1 X60.015 Y49.515 E140.58131
G1 F1125 X59.099 Y49.515 E140.60658
G1 X59.099 Y50.709 E140.63953
G1 F994.9 X59.193 Y51.675 E140.66945
G1 F889.5 X59.193 Y79.631 E141.62197
G1 F887.5 X59.194 Y107.587 E142.57642
G1 F885.5 X59.195 Y135.543 E143.5328
G1 F883.5 X59.196 Y163.499 E144.49111
G1 F986.3 X59.103 Y164.241 E144.51434
G1 F1120.4 X59.099 Y165.485 E144.54879
G1 F1125 X60.008 Y165.485 E144.57387
G1 F927.4 X60.958 Y165.333 E144.60546
M204 S1000
G0 F15000 X61.358 Y165.333
G0 X60.135 Y164.576
;TYPE:WALL-INNER
G1 F860 X60.071 Y164.685 E144.60929
G1 X59.881 Y164.576 E144.61593
G1 X60.071 Y164.467 E144.62257
G1 F1500 E138.12257
G0 F15000 X59.847 Y50.847
G0 X60.144 Y50.431
G1 F900 E144.62257
G1 F846.8 X60.079 Y50.542 E144.62652
G1 X59.886 Y50.431 E144.63337
G1 X60.079 Y50.32 E144.64021
G1 F1500 E138.14021
G0 F15000 X174.214 Y50.323
G1 F900 E144.64021
G1 F841.3 X174.021 Y50.434 E144.64709
G1 X174.214 Y50.545 E144.65398
G1 X174.279 Y50.434 E144.65795
G1 F1500 E138.15795
G0 F15000 X174.214 Y164.455
G1 F900 E144.65795
G1 F841.3 X174.021 Y164.566 E144.66484
G1 X174.214 Y164.677 E144.67172
G1 X174.279 Y164.566 E144.6757
G1 F1500 E138.1757
G1 F600 Z2.2
;MESH:UM3E_230315_testinfill_frame_120mm.3mf(1)
G0 F15000 X169.335 Y52.075 Z2.2
;TYPE:FILL
G1 F600 Z0.2
G1 F900 E144.6757
G1 F1125 X169.626 Y53.02 E144.7005
G1 X171.104 Y55.43 E144.7714
G1 X171.925 Y56.323 E144.80183
G1 X171.925 Y79.025 E145.37121
G1 X171.449 Y79.53 E145.38861
G1 X169.857 Y81.94 E145.46106
G1 X168.998 Y84.35 E145.52523
G1 X168.699 Y86.76 E145.58613
G1 X168.885 Y89.17 E145.64676
G1 X169.626 Y91.58 E145.71
G1 X171.104 Y93.99 E145.7809
G1 X171.925 Y94.883 E145.81133
G1 X171.925 Y117.585 E146.38071
G1 X171.449 Y118.09 E146.39811
G1 X169.857 Y120.5 E146.47056
G1 X168.998 Y122.91 E146.53473
G1 X168.699 Y125.32 E146.59563
G1 X168.885 Y127.73 E146.65626
G1 X169.626 Y130.14 E146.71949
G1 X171.104 Y132.55 E146.7904
G1 X171.925 Y133.443 E146.82083
G1 X171.925 Y156.145 E147.39021
G1 X171.449 Y156.65 E147.40761
G1 X169.857 Y159.06 E147.48006
G1 X168.998 Y161.47 E147.54422
G1 X168.817 Y162.925 E147.581
G1 X149.493 Y162.925 E148.06566
G1 X149.605 Y161.47 E148.10226
G1 X150.346 Y159.06 E148.1655
G1 X151.824 Y156.65 E148.2364
G1 X154.04 Y154.24 E148.31852
G1 X156.312 Y151.83 E148.40159
G1 X157.904 Y149.42 E148.47403
G1 X158.763 Y147.01 E148.5382
G1 X159.062 Y144.6 E148.59911
G1 X158.876 Y142.19 E148.65973
G1 X158.135 Y139.78 E148.72297
G1 X156.657 Y137.37 E148.79387
G1 X154.441 Y134.96 E148.87599
G1 X152.169 Y132.55 E148.95906
G1 X150.577 Y130.14 E149.0315
G1 X149.718 Y127.73 E149.09567
G1 X149.419 Y125.32 E149.15658
G1 X149.605 Y122.91 E149.2172
G1 X150.346 Y120.5 E149.28044
G1 X151.824 Y118.09 E149.35134
G1 X154.04 Y115.68 E149.43346
G1 X156.312 Y113.27 E149.51653
G1 X157.904 Y110.86 E149.58897
G1 X158.763 Y108.45 E149.65314
G1 X159.062 Y106.04 E149.71405
G1 X158.876 Y103.63 E149.77467
G1 X158.135 Y101.22 E149.83791
G1 X156.657 Y98.81 E149.90881
G1 X154.441 Y96.4 E149.99093
G1 X152.169 Y93.99 E150.074
G1 X150.577 Y91.58 E150.14644
G1 X149.718 Y89.17 E150.21061
G1 X149.419 Y86.76 E150.27152
G1 X149.605 Y84.35 E150.33214
G1 X150.346 Y81.94 E150.39538
G1 X151.824 Y79.53 E150.46628
G1 X154.04 Y77.12 E150.5484
G1 X156.312 Y74.71 E150.63147
G1 X157.904 Y72.3 E150.70391
G1 X158.763 Y69.89 E150.76808
G1 X159.062 Y67.48 E150.82899
G1 X158.876 Y65.07 E150.88961
G1 X158.135 Y62.66 E150.95285
G1 X156.657 Y60.25 E151.02375
G1 X154.441 Y57.84 E151.10587
G1 X152.169 Y55.43 E151.18894
G1 X150.577 Y53.02 E151.26138
G1 X150.24 Y52.075 E151.28654
G1 X130.775 Y52.075 E151.77474
G1 X131.066 Y53.02 E151.79954
G1 X132.544 Y55.43 E151.87045
G1 X134.76 Y57.84 E151.95256
G1 X137.032 Y60.25 E152.03563
G1 X138.624 Y62.66 E152.10807
G1 X139.483 Y65.07 E152.17224
G1 X139.782 Y67.48 E152.23315
G1 X139.596 Y69.89 E152.29377
G1 X138.855 Y72.3 E152.35701
G1 X137.377 Y74.71 E152.42792
G1 X135.161 Y77.12 E152.51003
G1 X132.889 Y79.53 E152.5931
G1 X131.297 Y81.94 E152.66554
G1 X130.438 Y84.35 E152.72971
G1 X130.139 Y86.76 E152.79062
G1 X130.325 Y89.17 E152.85124
G1 X131.066 Y91.58 E152.91448
G1 X132.544 Y93.99 E152.98539
G1 X134.76 Y96.4 E153.0675
G1 X137.032 Y98.81 E153.15057
G1 X138.624 Y101.22 E153.22301
G1 X139.483 Y103.63 E153.28718
G1 X139.782 Y106.04 E153.34809
G1 X139.596 Y108.45 E153.40871
G1 X138.855 Y110.86 E153.47195
G1 X137.377 Y113.27 E153.54286
G1 X135.161 Y115.68 E153.62497
G1 X132.889 Y118.09 E153.70804
G1 X131.297 Y120.5 E153.78048
G1 X130.438 Y122.91 E153.84465
G1 X130.139 Y125.32 E153.90556
G1 X130.325 Y127.73 E153.96618
G1 X131.066 Y130.14 E154.02942
G1 X132.544 Y132.55 E154.10033
G1 X134.76 Y134.96 E154.18244
G1 X137.032 Y137.37 E154.26551
G1 X138.624 Y139.78 E154.33795
G1 X139.483 Y142.19 E154.40212
G1 X139.782 Y144.6 E154.46303
G1 X139.596 Y147.01 E154.52365
G1 X138.855 Y149.42 E154.58689
G1 X137.377 Y151.83 E154.6578
G1 X135.161 Y154.24 E154.73991
G1 X132.889 Y156.65 E154.82298
G1 X131.297 Y159.06 E154.89542
G1 X130.438 Y161.47 E154.95959
G1 X130.257 Y162.925 E154.99637
G1 X110.933 Y162.925 E155.48103
G1 X111.045 Y161.47 E155.51763
G1 X111.786 Y159.06 E155.58086
G1 X113.264 Y156.65 E155.65177
G1 X115.48 Y154.24 E155.73388
G1 X117.752 Y151.83 E155.81695
G1 X119.344 Y149.42 E155.8894
G1 X120.203 Y147.01 E155.95356
G1 X120.502 Y144.6 E156.01447
G1 X120.316 Y142.19 E156.0751
G1 X119.575 Y139.78 E156.13833
G1 X118.097 Y137.37 E156.20924
G1 X115.881 Y134.96 E156.29135
G1 X113.609 Y132.55 E156.37442
G1 X112.017 Y130.14 E156.44687
G1 X111.158 Y127.73 E156.51103
G1 X110.859 Y125.32 E156.57194
G1 X111.045 Y122.91 E156.63257
G1 X111.786 Y120.5 E156.6958
G1 X113.264 Y118.09 E156.76671
G1 X115.48 Y115.68 E156.84882
G1 X117.752 Y113.27 E156.93189
G1 X119.344 Y110.86 E157.00434
G1 X120.203 Y108.45 E157.06851
G1 X120.502 Y106.04 E157.12941
G1 X120.316 Y103.63 E157.19004
G1 X119.575 Y101.22 E157.25327
G1 X118.097 Y98.81 E157.32418
G1 X115.881 Y96.4 E157.40629
G1 X113.609 Y93.99 E157.48936
G1 X112.017 Y91.58 E157.56181
G1 X111.158 Y89.17 E157.62598
G1 X110.859 Y86.76 E157.68688
G1 X111.045 Y84.35 E157.74751
G1 X111.786 Y81.94 E157.81075
G1 X113.264 Y79.53 E157.88165
G1 X115.48 Y77.12 E157.96376
G1 X117.752 Y74.71 E158.04683
G1 X119.344 Y72.3 E158.11928
G1 X120.203 Y69.89 E158.18345
G1 X120.502 Y67.48 E158.24435
G1 X120.316 Y65.07 E158.30498
G1 X119.575 Y62.66 E158.36822
G1 X118.097 Y60.25 E158.43912
G1 X115.881 Y57.84 E158.52123
G1 X113.609 Y55.43 E158.60431
G1 X112.017 Y53.02 E158.67675
G1 X111.68 Y52.075 E158.70191
G1 X92.215 Y52.075 E159.19011
G1 X92.506 Y53.02 E159.21491
G1 X93.984 Y55.43 E159.28581
G1 X96.2 Y57.84 E159.36793
G1 X98.472 Y60.25 E159.451
G1 X100.064 Y62.66 E159.52344
G1 X100.923 Y65.07 E159.58761
G1 X101.222 Y67.48 E159.64852
G1 X101.036 Y69.89 E159.70914
G1 X100.295 Y72.3 E159.77238
G1 X98.817 Y74.71 E159.84328
G1 X96.601 Y77.12 E159.9254
G1 X94.329 Y79.53 E160.00847
G1 X92.737 Y81.94 E160.08091
G1 X91.878 Y84.35 E160.14508
G1 X91.579 Y86.76 E160.20599
G1 X91.765 Y89.17 E160.26661
G1 X92.506 Y91.58 E160.32985
G1 X93.984 Y93.99 E160.40075
G1 X96.2 Y96.4 E160.48287
G1 X98.472 Y98.81 E160.56594
G1 X100.064 Y101.22 E160.63838
G1 X100.923 Y103.63 E160.70255
G1 X101.222 Y106.04 E160.76346
G1 X101.036 Y108.45 E160.82408
G1 X100.295 Y110.86 E160.88732
G1 X98.817 Y113.27 E160.95822
G1 X96.601 Y115.68 E161.04034
G1 X94.329 Y118.09 E161.12341
G1 X92.737 Y120.5 E161.19585
G1 X91.878 Y122.91 E161.26002
G1 X91.579 Y125.32 E161.32093
G1 X91.765 Y127.73 E161.38155
G1 X92.506 Y130.14 E161.44479
G1 X93.984 Y132.55 E161.51569
G1 X96.2 Y134.96 E161.59781
G1 X98.472 Y137.37 E161.68088
G1 X100.064 Y139.78 E161.75332
G1 X100.923 Y142.19 E161.81749
G1 X101.222 Y144.6 E161.8784
G1 X101.036 Y147.01 E161.93902
G1 X100.295 Y149.42 E162.00226
G1 X98.817 Y151.83 E162.07316
G1 X96.601 Y154.24 E162.15528
G1 X94.329 Y156.65 E162.23835
G1 X92.737 Y159.06 E162.31079
G1 X91.878 Y161.47 E162.37496
G1 X91.697 Y162.925 E162.41173
G1 X72.373 Y162.925 E162.89639
G1 X72.485 Y161.47 E162.93299
G1 X73.226 Y159.06 E162.99623
G1 X74.704 Y156.65 E163.06714
G1 X76.92 Y154.24 E163.14925
G1 X79.192 Y151.83 E163.23232
G1 X80.784 Y149.42 E163.30476
G1 X81.643 Y147.01 E163.36893
G1 X81.942 Y144.6 E163.42984
G1 X81.756 Y142.19 E163.49046
G1 X81.015 Y139.78 E163.5537
G1 X79.537 Y137.37 E163.62461
G1 X77.321 Y134.96 E163.70672
G1 X75.049 Y132.55 E163.78979
G1 X73.457 Y130.14 E163.86223
G1 X72.598 Y127.73 E163.9264
G1 X72.299 Y125.32 E163.98731
G1 X72.485 Y122.91 E164.04793
G1 X73.226 Y120.5 E164.11117
G1 X74.704 Y118.09 E164.18208
G1 X76.92 Y115.68 E164.26419
G1 X79.192 Y113.27 E164.34726
G1 X80.784 Y110.86 E164.4197
G1 X81.643 Y108.45 E164.48387
G1 X81.942 Y106.04 E164.54478
G1 X81.756 Y103.63 E164.60541
G1 X81.015 Y101.22 E164.66864
