;START_OF_HEADER
;HEADER_VERSION:0.1
;FLAVOR:Griffin
;GENERATOR.NAME:Cura_SteamEngine
;GENERATOR.VERSION:5.3.1
;GENERATOR.BUILD_DATE:2023-04-19
;TARGET_MACHINE.NAME:Ultimaker 3 Extended
;EXTRUDER_TRAIN.0.INITIAL_TEMPERATURE:215
;EXTRUDER_TRAIN.0.MATERIAL.VOLUME_USED:25583
;EXTRUDER_TRAIN.0.MATERIAL.GUID:32c69f10-75f2-4eaa-8c70-6efc3a1240f8
;EXTRUDER_TRAIN.0.NOZZLE.DIAMETER:0.8
;EXTRUDER_TRAIN.0.NOZZLE.NAME:AA 0.8
;BUILD_PLATE.INITIAL_TEMPERATURE:60
;PRINT.TIME:8166
;PRINT.GROUPS:1
;PRINT.SIZE.MIN.X:9
;PRINT.SIZE.MIN.Y:6
;PRINT.SIZE.MIN.Z:0.2
;PRINT.SIZE.MAX.X:182.269
;PRINT.SIZE.MAX.Y:172.685
;PRINT.SIZE.MAX.Z:15.65
;SLICE_UUID:64faf8c5-483f-433a-97d9-661fd09bb856
;END_OF_HEADER
;Generated with Cura_SteamEngine 5.3.1
T0
M82 ;absolute extrusion mode

G92 E0
M109 S215
G0 F15000 X9 Y6 Z2
G280
G1 F1500 E-6.5
;LAYER_COUNT:104
;LAYER:0
M106 S25.5
M204 S1000
M205 X25 Y25
G1 F600 Z2.2
G0 F15000 X53.912 Y43.874 Z2.2
;TYPE:SKIRT
G1 F600 Z0.2
G1 F900 E0
G1 F1125 X57.447 Y42.315 E0.0969
G1 X177.159 Y42.315 E3.09937
G1 X180.71 Y44.328 E3.20174
G1 X182.269 Y47.863 E3.29864
G1 X182.269 Y167.572 E6.30103
G1 X180.972 Y169.97 E6.36941
G1 X178.492 Y172.266 E6.45417
G1 X176.217 Y172.685 E6.51219
G1 X56.804 Y172.685 E9.50716
G1 X54.385 Y171.171 E9.57873
G1 X52.301 Y168.852 E9.65693
G1 X51.899 Y166.61 E9.71406
G1 X51.899 Y47.425 E12.70331
G1 X53.912 Y43.874 E12.80568
G0 F15000 X54.478 Y44.499
G1 F1125 X57.616 Y43.115 E12.8917
G1 X176.947 Y43.115 E15.88461
G1 X180.085 Y44.894 E15.97508
G1 X181.469 Y48.032 E16.0611
G1 X181.469 Y167.369 E19.05416
G1 X180.331 Y169.474 E19.11418
G1 X178.12 Y171.521 E19.18975
G1 X176.143 Y171.885 E19.24017
G1 X57.034 Y171.885 E22.22751
G1 X54.905 Y170.552 E22.29051
G1 X53.048 Y168.486 E22.36018
G1 X52.699 Y166.541 E22.40974
G1 X52.699 Y47.637 E25.39194
G1 X54.478 Y44.499 E25.48241
G0 F15000 X55.043 Y45.124
G1 F1125 X57.785 Y43.915 E25.55757
G1 X176.736 Y43.915 E28.54095
G1 X179.46 Y45.459 E28.61948
G1 X180.669 Y48.201 E28.69464
G1 X180.669 Y167.167 E31.6784
G1 X179.689 Y168.979 E31.73007
G1 X177.748 Y170.776 E31.79641
G1 X176.069 Y171.085 E31.83922
G1 X57.264 Y171.085 E34.81894
G1 X55.426 Y169.935 E34.87332
G1 X53.795 Y168.12 E34.93452
G1 X53.499 Y166.472 E34.97652
G1 X53.499 Y47.848 E37.95169
G1 X55.043 Y45.124 E38.03023
G0 F15000 X55.609 Y45.749
G1 F1125 X57.954 Y44.715 E38.0945
G1 X176.524 Y44.715 E41.06833
G1 X178.835 Y46.025 E41.13495
G1 X179.869 Y48.37 E41.19923
G1 X179.869 Y166.964 E44.17366
G1 X179.048 Y168.483 E44.21696
G1 X177.376 Y170.031 E44.27411
G1 X175.995 Y170.285 E44.30933
G1 X57.492 Y170.285 E47.28147
G1 X55.947 Y169.318 E47.32719
G1 X54.542 Y167.754 E47.37992
G1 X54.299 Y166.402 E47.41437
G1 X54.299 Y48.06 E50.38247
G1 X55.609 Y45.749 E50.4491
G0 F15000 X56.175 Y46.374
G1 F1125 X58.123 Y45.515 E50.5025
G1 X176.312 Y45.515 E53.46676
G1 X178.21 Y46.591 E53.52148
G1 X179.069 Y48.539 E53.57488
G1 X179.069 Y166.762 E56.54
G1 X178.407 Y167.986 E56.5749
G1 X177.003 Y169.286 E56.62289
G1 X175.921 Y169.485 E56.65049
G1 X57.72 Y169.485 E59.61505
G1 X56.466 Y168.7 E59.65216
G1 X55.289 Y167.389 E59.69635
G1 X55.099 Y166.332 E59.72328
G1 X55.099 Y48.272 E62.68432
G1 X56.175 Y46.374 E62.73904
G0 F15000 X56.741 Y46.999
G1 F1125 X58.292 Y46.315 E62.78155
G1 X176.1 Y46.315 E65.73626
G1 X177.585 Y47.157 E65.77908
G1 X178.269 Y48.708 E65.82159
G1 X178.269 Y166.559 E68.77738
G1 X177.767 Y167.488 E68.80387
G1 X176.63 Y168.541 E68.84274
G1 X175.847 Y168.685 E68.8627
G1 X57.95 Y168.685 E71.81965
G1 X56.986 Y168.081 E71.84818
G1 X56.036 Y167.024 E71.88382
G1 X55.899 Y166.258 E71.90334
G1 X55.899 Y48.484 E74.8572
G1 X56.741 Y46.999 E74.90002
G0 F15000 X57.306 Y47.624
G1 F1125 X58.461 Y47.115 E74.93167
G1 X175.889 Y47.115 E77.87685
G1 X176.96 Y47.722 E77.90773
G1 X177.469 Y48.877 E77.93939
G1 X177.469 Y166.356 E80.88585
G1 X177.127 Y166.99 E80.90391
G1 X176.257 Y167.796 E80.93366
G1 X175.847 Y167.885 E80.94418
G1 X58.18 Y167.885 E83.89536
G1 X57.507 Y167.464 E83.91527
G1 X56.783 Y166.658 E83.94244
G1 X56.699 Y166.258 E83.95269
G1 X56.699 Y48.695 E86.90126
G1 X57.306 Y47.624 E86.93213
G0 F15000 X57.872 Y48.249
G1 F1125 X58.63 Y47.915 E86.95291
G1 X175.677 Y47.915 E89.88853
G1 X176.335 Y48.288 E89.9075
G1 X176.669 Y49.046 E89.92828
G1 X176.669 Y166.158 E92.86554
G1 X176.537 Y166.45 E92.87357
G1 X175.847 Y167.085 E92.89709
G1 X58.404 Y167.085 E95.84265
G1 X58.102 Y166.93 E95.85116
G1 X57.499 Y166.258 E95.87381
G1 X57.499 Y48.907 E98.81706
G1 X57.872 Y48.249 E98.83603
G0 F15000 X58.449 Y48.803
G1 F1125 X58.63 Y48.715 E98.84108
G1 X175.469 Y48.715 E101.77148
G1 X175.781 Y48.865 E101.78017
G1 X175.869 Y49.046 E101.78521
G1 X175.869 Y166.009 E104.71873
G1 X175.538 Y166.285 E104.72954
G1 X58.575 Y166.285 E107.66306
G1 X58.299 Y165.954 E107.67387
G1 X58.299 Y49.115 E110.60428
G1 X58.449 Y48.803 E110.61296
M204 S429
G1 F1500 E104.11296
;MESH:UM3E_230315_testinfill_frame_120mm.3mf
G0 F15000 X59.875 Y50.875
G0 X60.958 Y164.227
;TYPE:WALL-OUTER
G1 F900 E110.61296
G1 F923.1 X60.602 Y163.866 E110.62968
G1 F986.3 X60.184 Y163.411 E110.64888
G1 F883.5 X60.184 Y135.477 E111.60643
G1 F885.5 X60.183 Y107.543 E112.56205
G1 F887.5 X60.182 Y79.609 E113.51575
G1 F889.5 X60.181 Y51.675 E114.46753
G1 F994.9 X60.578 Y51.29 E114.48458
G1 F923.1 X60.885 Y50.776 E114.50431
G1 F777.8 X83.346 Y50.776 E115.36566
G1 F779.4 X105.807 Y50.775 E116.22545
G1 F780.2 X128.268 Y50.775 E117.08447
G1 F781.8 X150.729 Y50.774 E117.94195
G1 F783.4 X173.19 Y50.773 E118.79787
G1 X173.811 Y51.408 E118.83171
G1 X173.811 Y73.846 E119.68676
G1 F781.8 X173.81 Y96.284 E120.54335
G1 F780.2 X173.81 Y118.722 E121.4015
G1 F779.4 X173.809 Y141.16 E122.26041
G1 F777.8 X173.808 Y163.598 E123.12087
G1 F777 X173.272 Y164.224 E123.15251
G1 F777.8 X150.809 Y164.224 E124.01393
G1 F779.4 X128.346 Y164.225 E124.8738
G1 F780.2 X105.883 Y164.225 E125.7329
G1 F781.8 X83.42 Y164.226 E126.59044
G1 F783.4 X60.957 Y164.227 E127.44644
G0 F15000 X60.678 Y163.943
G0 X60.958 Y165.333
G1 F783.4 X83.44 Y165.333 E128.30317
G1 F781.8 X105.922 Y165.332 E129.16144
G1 F780.2 X128.404 Y165.331 E130.02126
G1 F779.4 X150.886 Y165.33 E130.88186
G1 F777.8 X173.368 Y165.329 E131.74401
G1 F923.1 X174.15 Y165.485 E131.7703
G1 F1125 X175.069 Y165.485 E131.79566
G1 F1083.2 X175.069 Y164.479 E131.82438
G1 F893.6 X174.913 Y163.694 E131.85154
G1 F777.8 X174.913 Y141.237 E132.71273
G1 F779.4 X174.914 Y118.78 E133.57237
G1 F780.2 X174.915 Y96.323 E134.43124
G1 F781.8 X174.916 Y73.866 E135.28856
G1 F783.4 X174.916 Y51.409 E136.14433
G1 F927.4 X175.069 Y50.434 E136.17673
G1 F1125 X175.069 Y49.515 E136.20209
G1 F1111.2 X173.88 Y49.515 E136.23526
G1 F917.7 X173.086 Y49.667 E136.26205
G1 F783.4 X150.627 Y49.667 E137.1179
G1 F781.8 X128.168 Y49.668 E137.97529
G1 F780.2 X105.709 Y49.669 E138.83424
G1 F779.4 X83.25 Y49.67 E139.69396
G1 F777.8 X60.791 Y49.67 E140.55522
G1 F923.1 X60.015 Y49.515 E140.58131
G1 F1125 X59.099 Y49.515 E140.60658
G1 X59.099 Y50.709 E140.63953
G1 F994.9 X59.193 Y51.675 E140.66945
G1 F889.5 X59.193 Y79.631 E141.62197
G1 F887.5 X59.194 Y107.587 E142.57642
G1 F885.5 X59.195 Y135.543 E143.5328
G1 F883.5 X59.196 Y163.499 E144.49111
G1 F986.3 X59.103 Y164.241 E144.51434
G1 F1120.4 X59.099 Y165.485 E144.54879
G1 F1125 X60.008 Y165.485 E144.57387
G1 F927.4 X60.958 Y165.333 E144.60546
M204 S1000
G0 F15000 X61.358 Y165.333
G0 X60.135 Y164.576
;TYPE:WALL-INNER
G1 F860 X60.071 Y164.685 E144.60929
G1 X59.881 Y164.576 E144.61593
G1 X60.071 Y164.467 E144.62257
G1 F1500 E138.12257
G0 F15000 X59.847 Y50.847
G0 X60.144 Y50.431
G1 F900 E144.62257
G1 F846.8 X60.079 Y50.542 E144.62652
G1 X59.886 Y50.431 E144.63337
G1 X60.079 Y50.32 E144.64021
G1 F1500 E138.14021
G0 F15000 X174.214 Y50.323
G1 F900 E144.64021
G1 F841.3 X174.021 Y50.434 E144.64709
G1 X174.214 Y50.545 E144.65398
G1 X174.279 Y50.434 E144.65795
G1 F1500 E138.15795
G0 F15000 X174.214 Y164.455
G1 F900 E144.65795
G1 F841.3 X174.021 Y164.566 E144.66484
G1 X174.214 Y164.677 E144.67172
G1 X174.279 Y164.566 E144.6757
G1 F1500 E138.1757
G1 F600 Z2.2
;MESH:UM3E_230315_testinfill_frame_120mm.3mf(1)
G0 F15000 X171.925 Y142.686 Z2.2
;TYPE:FILL
G1 F600 Z0.2
G1 F900 E144.6757
G1 F1125 X170.328 Y140.985 E144.73421
G1 X167.969 Y137.37 E144.84248
G1 X166.71 Y133.755 E144.93849
G1 X166.289 Y130.14 E145.02977
G1 X166.597 Y126.525 E145.12076
G1 X167.738 Y122.91 E145.21584
G1 X169.983 Y119.295 E145.32257
G1 X171.925 Y117.191 E145.39438
G1 X171.925 Y84.846 E146.20561
G1 X170.328 Y83.145 E146.26413
G1 X167.969 Y79.53 E146.3724
G1 X166.71 Y75.915 E146.4684
G1 X166.289 Y72.3 E146.55968
G1 X166.597 Y68.685 E146.65068
G1 X167.738 Y65.07 E146.74576
G1 X169.983 Y61.455 E146.85248
G1 X171.925 Y59.351 E146.9243
G1 X171.925 Y52.075 E147.10678
G1 X149.473 Y52.075 E147.6699
G1 X148.138 Y54.225 E147.73337
G1 X144.801 Y57.84 E147.85676
G1 X141.408 Y61.455 E147.98111
G1 X139.049 Y65.07 E148.08937
G1 X137.79 Y68.685 E148.18538
G1 X137.369 Y72.3 E148.27666
G1 X137.677 Y75.915 E148.36765
G1 X138.818 Y79.53 E148.46273
G1 X141.063 Y83.145 E148.56946
G1 X144.4 Y86.76 E148.69285
G1 X147.793 Y90.375 E148.8172
G1 X150.152 Y93.99 E148.92546
G1 X151.411 Y97.605 E149.02147
G1 X151.832 Y101.22 E149.11275
G1 X151.524 Y104.835 E149.20374
G1 X150.383 Y108.45 E149.29882
G1 X148.138 Y112.065 E149.40555
G1 X144.801 Y115.68 E149.52894
G1 X141.408 Y119.295 E149.65329
G1 X139.049 Y122.91 E149.76155
G1 X137.79 Y126.525 E149.85756
G1 X137.369 Y130.14 E149.94884
G1 X137.677 Y133.755 E150.03983
G1 X138.818 Y137.37 E150.13491
G1 X141.063 Y140.985 E150.24164
G1 X144.4 Y144.6 E150.36503
G1 X147.793 Y148.215 E150.48937
G1 X150.152 Y151.83 E150.59764
G1 X151.411 Y155.445 E150.69365
G1 X151.832 Y159.06 E150.78493
G1 X151.503 Y162.925 E150.88221
G1 X122.462 Y162.925 E151.61058
G1 X122.912 Y159.06 E151.70818
G1 X122.604 Y155.445 E151.79917
G1 X121.463 Y151.83 E151.89425
G1 X119.218 Y148.215 E152.00097
G1 X115.881 Y144.6 E152.12437
G1 X112.488 Y140.985 E152.24871
G1 X110.129 Y137.37 E152.35698
G1 X108.87 Y133.755 E152.45298
G1 X108.449 Y130.14 E152.54426
G1 X108.757 Y126.525 E152.63526
G1 X109.898 Y122.91 E152.73034
G1 X112.143 Y119.295 E152.83706
G1 X115.48 Y115.68 E152.96045
G1 X118.873 Y112.065 E153.0848
G1 X121.232 Y108.45 E153.19307
G1 X122.491 Y104.835 E153.28907
G1 X122.912 Y101.22 E153.38035
G1 X122.604 Y97.605 E153.47135
G1 X121.463 Y93.99 E153.56642
G1 X119.218 Y90.375 E153.67315
G1 X115.881 Y86.76 E153.79654
G1 X112.488 Y83.145 E153.92089
G1 X110.129 Y79.53 E154.02915
G1 X108.87 Y75.915 E154.12516
G1 X108.449 Y72.3 E154.21644
G1 X108.757 Y68.685 E154.30744
G1 X109.898 Y65.07 E154.40251
G1 X112.143 Y61.455 E154.50924
G1 X115.48 Y57.84 E154.63263
G1 X118.873 Y54.225 E154.75698
G1 X120.276 Y52.075 E154.82137
G1 X91.633 Y52.075 E155.53976
G1 X90.298 Y54.225 E155.60323
G1 X86.961 Y57.84 E155.72662
G1 X83.568 Y61.455 E155.85097
G1 X81.209 Y65.07 E155.95923
G1 X79.95 Y68.685 E156.05524
G1 X79.529 Y72.3 E156.14652
G1 X79.837 Y75.915 E156.23752
G1 X80.978 Y79.53 E156.33259
G1 X83.223 Y83.145 E156.43932
G1 X86.56 Y86.76 E156.56271
G1 X89.953 Y90.375 E156.68706
G1 X92.312 Y93.99 E156.79532
G1 X93.571 Y97.605 E156.89133
G1 X93.992 Y101.22 E156.98261
G1 X93.684 Y104.835 E157.0736
G1 X92.543 Y108.45 E157.16868
G1 X90.298 Y112.065 E157.27541
G1 X86.961 Y115.68 E157.3988
G1 X83.568 Y119.295 E157.52315
G1 X81.209 Y122.91 E157.63141
G1 X79.95 Y126.525 E157.72742
G1 X79.529 Y130.14 E157.8187
G1 X79.837 Y133.755 E157.90969
G1 X80.978 Y137.37 E158.00477
G1 X83.223 Y140.985 E158.1115
G1 X86.56 Y144.6 E158.23489
G1 X89.953 Y148.215 E158.35924
G1 X92.312 Y151.83 E158.4675
G1 X93.571 Y155.445 E158.56351
G1 X93.992 Y159.06 E158.65479
G1 X93.663 Y162.925 E158.75207
G1 X64.622 Y162.925 E159.48044
G1 X65.072 Y159.06 E159.57804
G1 X64.764 Y155.445 E159.66903
G1 X63.623 Y151.83 E159.76411
G1 X61.378 Y148.215 E159.87084
G1 X61.075 Y147.887 E159.88204
G1 X61.075 Y112.001 E160.78208
G1 X63.392 Y108.45 E160.88843
G1 X64.651 Y104.835 E160.98443
G1 X65.072 Y101.22 E161.07571
G1 X64.764 Y97.605 E161.16671
G1 X63.623 Y93.99 E161.26179
G1 X61.378 Y90.375 E161.36851
G1 X61.075 Y90.047 E161.37971
M204 S429
G0 F15000 X63.075 Y90.047
G1 F1500 E154.87971
;MESH:NONMESH
G0 F600 X63.075 Y90.047 Z0.35
G0 F15000 X61.489 Y162.511
G0 X61.489 Y164.475
G0 X61.069 Y163.915
;TIME_ELAPSED:349.396861
;LAYER:1
;TYPE:WALL-OUTER
;MESH:UM3E_230315_testinfill_frame_120mm.3mf
G1 F900 E161.37971
G1 F1500 X60.786 Y163.798 E161.38547
G1 X60.674 Y163.585 E161.39
G1 X60.669 Y51.485 E163.49866
G1 X60.786 Y51.202 E163.50442
G1 X60.999 Y51.09 E163.50895
G1 X173.099 Y51.085 E165.61761
G1 X173.382 Y51.202 E165.62337
G1 X173.499 Y51.485 E165.62913
G1 X173.494 Y163.585 E167.7378
G1 X173.169 Y163.91 E167.74644
G1 X61.069 Y163.915 E169.85511
G0 F15000 X60.786 Y163.798
G0 X60.743 Y163.715
G0 X60.378 Y164.08
G0 X58.939 Y165.645
G1 F1500 X175.229 Y165.645 E172.04259
G1 X175.229 Y49.355 E174.23007
G1 X58.939 Y49.355 E176.41755
G1 X58.939 Y165.645 E178.60503
M204 S1500
G0 F15000 X59.339 Y165.645
G0 X59.813 Y163.735
;TYPE:WALL-INNER
G1 F1505.1 X59.804 Y163.515 E178.60989
G1 F1523.2 X59.804 Y51.485 E181.05968
G1 F1785.3 X60.262 Y50.678 E181.07727
G1 F1761.2 X60.849 Y50.229 E181.09145
G1 X60.021 Y50.096 E181.10754
G1 F2142.6 X59.68 Y50.096 E181.11301
G1 X59.68 Y50.437 E181.11847
G1 F1949 X59.742 Y50.961 E181.12771
G1 F1644.9 X59.804 Y51.485 E181.13847
G0 F15000 X60.849 Y50.229
G1 F1505.1 X61.069 Y50.22 E181.14334
G1 F1523.2 X173.099 Y50.22 E183.59313
G0 F15000 X174.364 Y51.485
G1 F1523.2 X174.364 Y163.515 E186.04292
G1 F1506.9 X174.355 Y163.735 E186.04778
G0 F15000 X173.319 Y164.771
G1 F1505.1 X173.099 Y164.78 E186.05265
G1 F1523.2 X61.069 Y164.78 E188.50244
G1 F1785.3 X60.262 Y164.322 E188.52003
G1 F1761.2 X59.813 Y163.735 E188.53421
G1 X59.68 Y164.563 E188.5503
G1 F2142.6 X59.68 Y164.904 E188.55576
G1 X60.021 Y164.904 E188.56123
G1 F1949 X60.545 Y164.842 E188.57046
G1 F1644.9 X61.069 Y164.78 E188.58123
G1 F1500 E182.08123
G0 F15000 X173.319 Y164.771
G1 F900 E188.58123
G1 F1761.2 X174.147 Y164.904 E188.59732
G1 F2142.6 X174.488 Y164.904 E188.60279
G1 X174.488 Y164.563 E188.60826
G1 F1763.6 X174.355 Y163.735 E188.62433
G1 X173.906 Y164.322 E188.63849
G1 F1761.2 X173.319 Y164.771 E188.65267
G1 F1500 E182.15267
G0 F15000 X174.364 Y51.485
G1 F900 E188.65267
G1 F1644.9 X174.426 Y50.961 E188.66344
G1 F1949 X174.488 Y50.437 E188.67267
G1 F2142.6 X174.488 Y50.096 E188.67814
G1 X174.147 Y50.096 E188.68361
G1 F1949 X173.623 Y50.158 E188.69284
G1 F1644.9 X173.099 Y50.22 E188.70361
G1 F1785.3 X173.906 Y50.678 E188.72119
G1 X174.364 Y51.485 E188.73878
M204 S3500
G1 F1500 E182.23878
;MESH:UM3E_230315_testinfill_frame_120mm.3mf(1)
G0 F15000 X173.899 Y142.709
G0 X171.665 Y142.709
G0 X172.085 Y142.709
;TYPE:FILL
G1 F900 E188.73878
G1 F2100 X170.456 Y140.985 E188.7834
G1 X168.054 Y137.37 E188.86504
G1 X166.75 Y133.755 E188.93733
G1 X166.287 Y130.14 E189.00588
G1 X166.553 Y126.525 E189.07407
G1 X167.649 Y122.91 E189.14512
G1 X169.852 Y119.295 E189.22476
G1 X172.085 Y116.862 E189.28687
G1 X172.085 Y84.869 E189.88868
G1 X170.456 Y83.145 E189.9333
G1 X168.054 Y79.53 E190.01494
G1 X166.75 Y75.915 E190.08723
G1 X166.287 Y72.3 E190.15578
G1 X166.553 Y68.685 E190.22397
G1 X167.649 Y65.07 E190.29503
G1 X169.852 Y61.455 E190.37466
G1 X172.085 Y59.022 E190.43678
G1 X172.085 Y51.915 E190.57046
G1 X149.677 Y51.915 E190.99197
G1 X148.269 Y54.225 E191.04286
G1 X144.951 Y57.84 E191.13516
G1 X141.536 Y61.455 E191.2287
G1 X139.134 Y65.07 E191.31035
G1 X137.83 Y68.685 E191.38264
G1 X137.367 Y72.3 E191.45119
G1 X137.633 Y75.915 E191.51938
G1 X138.729 Y79.53 E191.59043
G1 X140.932 Y83.145 E191.67006
